public/home/mountain-3.svg

<svg width="1280" height="153" viewBox="0 0 1280 153" fill="none" xmlns="http://www.w3.org/2000/svg">
<path d="M956.896 1.00195C971.622 1.14628 984.861 8.64851 998.774 16.6367C1012.6 24.5761 1027.06 32.9675 1043.94 34.3418C1060.79 35.714 1078.36 30.1611 1095.95 24.3965C1113.62 18.6044 1131.34 12.5919 1148.79 12.7344C1166.27 12.8772 1186.17 18.1719 1204.57 23.6621C1213.74 26.399 1222.56 29.1894 1230.45 31.3818C1238.34 33.5731 1245.4 35.1955 1251.07 35.5771C1262.25 36.33 1269.55 35.7124 1274.09 34.8906C1276.36 34.4796 1277.93 34.0172 1278.96 33.6484C1278.97 33.6432 1278.99 33.637 1279 33.6318V152H1V71.4268C1.0679 71.4209 1.13953 71.4148 1.21484 71.4082C1.95992 71.3434 3.06694 71.2464 4.51465 71.1201C7.41048 70.8675 11.67 70.4952 17.123 70.0166C28.0294 69.0594 43.7126 67.6769 62.8174 65.9766C101.027 62.5758 152.926 57.9025 207.684 52.8125C317.183 42.6339 438.161 30.7851 483.928 24.1123C483.966 24.1067 484.004 24.0988 484.041 24.0889C492.202 21.9107 500.27 16.0005 507.986 10.8066C511.881 8.1852 515.702 5.73004 519.475 3.92773C523.246 2.12594 526.908 1.00649 530.485 1.00195H530.486C535.852 0.994537 541.739 2.97158 547.943 6.08789C554.139 9.19948 560.557 13.3972 566.979 17.7383C573.38 22.0656 579.796 26.5432 585.914 30.1475C592.023 33.7465 597.941 36.5418 603.372 37.4453C614.042 39.2202 619.736 37.9575 625.466 36.4131C630.912 34.9451 636.34 33.2419 646.4 33.6807L647.389 33.7295C652.675 34.0234 658.48 35.6517 664.771 37.9697C671.065 40.2892 677.749 43.2606 684.835 46.2197C698.73 52.022 714.059 57.7276 730.143 57.8105H730.909C747.288 57.7089 766.885 49.9438 785.317 42.2861C794.573 38.4408 803.548 34.6154 811.768 31.7305C819.742 28.9315 826.908 27.055 832.848 26.8838L833.418 26.8721C845.758 26.7478 852.663 28.1325 858.863 29.4512C865.117 30.7812 870.718 32.0606 880.319 31.6445C885.28 31.4295 890.719 29.3071 896.469 26.3594C902.224 23.4088 908.443 19.5458 914.923 15.7695C927.965 8.16819 942.17 0.857747 956.896 1.00195Z" fill="#645E5F" stroke="url(#paint0_linear_2032_8)" stroke-width="2" stroke-linecap="round" stroke-linejoin="round"/>
<defs>
<linearGradient id="paint0_linear_2032_8" x1="761.93" y1="-34.2623" x2="762.819" y2="118.665" gradientUnits="userSpaceOnUse">
<stop stop-color="white" stop-opacity="0.5"/>
<stop offset="1" stop-color="#999999" stop-opacity="0.09"/>
</linearGradient>
</defs>
</svg>

<svg xmlns="http://www.w3.org/2000/svg" width="1280" height="153" fill="none" viewBox="0 0 1280 153"><path fill="#645e5f" stroke="url(#a)" stroke-linecap="round" stroke-linejoin="round" stroke-width="2" d="M956.896 1.002c14.726.144 27.965 7.647 41.878 15.635 13.826 7.94 28.286 16.33 45.166 17.705 16.85 1.372 34.42-4.18 52.01-9.945 17.67-5.793 35.39-11.805 52.84-11.663 17.48.143 37.38 5.438 55.78 10.928 9.17 2.737 17.99 5.527 25.88 7.72 7.89 2.191 14.95 3.814 20.62 4.195 11.18.753 18.48.135 23.02-.686 2.27-.411 3.84-.874 4.87-1.243l.04-.016V152H1V71.427l.215-.019 3.3-.288a37883.43 37883.43 0 0 0 58.303-5.143c38.209-3.401 90.108-8.074 144.866-13.164 109.499-10.18 230.477-22.028 276.244-28.7q.057-.009.113-.024c8.161-2.178 16.229-8.088 23.945-13.282 3.895-2.622 7.716-5.077 11.489-6.88 3.771-1.801 7.433-2.92 11.01-2.925h.001c5.366-.007 11.253 1.97 17.457 5.086 6.196 3.111 12.614 7.31 19.036 11.65 6.401 4.328 12.817 8.805 18.935 12.41 6.109 3.598 12.027 6.394 17.458 7.297 10.67 1.775 16.364.513 22.094-1.032 5.446-1.468 10.874-3.171 20.934-2.732l.989.049c5.286.293 11.091 1.922 17.382 4.24 6.294 2.32 12.978 5.29 20.064 8.25 13.895 5.802 29.224 11.508 45.308 11.59h.766c16.379-.101 35.976-7.866 54.408-15.524 9.256-3.845 18.231-7.67 26.451-10.556 7.974-2.799 15.14-4.675 21.08-4.846l.57-.012c12.34-.124 19.245 1.26 25.445 2.58 6.254 1.33 11.855 2.609 21.456 2.192 4.961-.214 10.4-2.337 16.15-5.285 5.755-2.95 11.974-6.813 18.454-10.59C927.965 8.17 942.17.859 956.896 1.003"/><defs><linearGradient id="a" x1="761.93" x2="762.819" y1="-34.262" y2="118.665" gradientUnits="userSpaceOnUse"><stop stop-color="#fff" stop-opacity=".5"/><stop offset="1" stop-color="#999" stop-opacity=".09"/></linearGradient></defs></svg>
